; generated by PrusaSlicer 2.8.0+win64 on 2024-10-23 at 14:35:23 UTC


;
;
; 

; external perimeters extrusion width = 0.60mm
; perimeters extrusion width = 0.50mm
; infill extrusion width = 0.50mm
; solid infill extrusion width = 0.50mm
; top infill extrusion width = 0.45mm
; first layer extrusion width = 0.42mm

M73 P0 R44
M73 Q0 S45
M201 X1000 Y1000 Z200 E5000 ; sets maximum accelerations, mm/sec^2
M203 X200 Y200 Z12 E120 ; sets maximum feedrates, mm / sec
M204 S1250 T1250 ; sets acceleration (S) and retract acceleration (R), mm/sec^2
M205 X8.00 Y8.00 Z0.40 E4.50 ; sets the jerk limits, mm/sec
M205 S0 T0 ; sets the minimum extruding and travel feed rate, mm/sec

; printing object RobotBase id:0 copy 0
; stop printing object RobotBase id:0 copy 0

;TYPE:Custom
M862.3 P "MK3S" ; printer model check
M862.1 P0.4 ; nozzle diameter check
M115 U3.14.0 ; tell printer latest fw version
G90 ; use absolute coordinates
M83 ; extruder relative mode
M104 S215 ; set extruder temp
M140 S60 ; set bed temp
M190 S60 ; wait for bed temp
M109 S215 ; wait for extruder temp
G28 W ; home all without mesh bed level
G80 X86.1229 Y64.1229 W77.7542 H81.7542 ; mesh bed levelling

G1 Z0.2 F720
G1 Y-3 F1000 ; go outside print area
G92 E0
G1 X60 E9 F1000 ; intro line
G1 X100 E12.5 F1000 ; intro line

G92 E0
M221 S95

; Don't change E values below. Excessive value can damage the printer.

M907 E538 ; set extruder motor current
G21 ; set units to millimeters
G90 ; use absolute coordinates
M83 ; use relative distances for extrusion

M900 K0.05 ; Filament gcode LA 1.5
M900 K30 ; Filament gcode LA 1.0




M107
;LAYER_CHANGE
;Z:0.2
;HEIGHT:0.2
G1 E-.8 F2100
G1 Z.6 F720
G1 X88.083 Y66.777 F10800
G1 Z.2 F720
G1 E.8 F2100
M204 S800
;TYPE:Skirt/Brim
;WIDTH:0.42
G1 F1200
G1 X89.184 Y65.754 E.04712
G1 X90.473 Y64.982 E.04711
G1 X91.894 Y64.495 E.0471
G1 X93.385 Y64.314 E.04709
G1 X156.5 Y64.311 E1.97893
G1 X157.882 Y64.448 E.04354
G1 X159.318 Y64.889 E.0471
G1 X160.631 Y65.619 E.0471
G1 X161.393 Y66.237 E.03076
G1 X162.381 Y67.369 E.04711
G1 X163.018 Y68.473 E.03996
G1 X163.369 Y69.389 E.03076
G1 X163.658 Y70.863 E.0471
G1 X163.689 Y138.5 E2.12071
G1 X163.552 Y139.882 E.04354
M73 Q0 S44
G1 X163.298 Y140.829 E.03074
G1 X162.78 Y141.994 E.03998
G1 X161.917 Y143.223 E.04709
G1 X160.816 Y144.246 E.04712
G1 X159.527 Y145.018 E.04711
G1 X158.106 Y145.505 E.0471
G1 X156.5 Y145.689 E.05068
G1 X93.5 Y145.689 E1.97532
G1 X92.118 Y145.552 E.04354
G1 X91.171 Y145.299 E.03073
G1 X90.006 Y144.78 E.03999
G1 X88.777 Y143.917 E.04709
G1 X87.754 Y142.816 E.04712
G1 X86.985 Y141.532 E.04693
G1 X86.473 Y140.013 E.05026
G1 X86.311 Y138.501 E.04768
G1 X86.311 Y71.5 E2.10077
G1 X86.448 Y70.118 E.04354
G1 X86.702 Y69.171 E.03074
G1 X87.334 Y67.808 E.04711
G1 X88.048 Y66.826 E.03807
M204 S1000
;WIPE_START
G1 F8640
G1 X88.083 Y66.777 E-.0139
G1 X89.184 Y65.754 E-.34703
G1 X90.473 Y64.982 E-.34693
G1 X90.85 Y64.853 E-.09214
;WIPE_END
G1 Z.6 F720
; printing object RobotBase id:0 copy 0
G1 X93.5 Y142.703 F10800
G1 Z.2 F720
G1 E.8 F2100
M204 S800
;TYPE:Perimeter
;WIDTH:0.419999
G1 F1200
G1 X92.842 Y142.654 E.02069
G1 X92.198 Y142.506 E.02072
G1 X91.59 Y142.248 E.02071
G1 X91.024 Y141.907 E.02072
G1 X90.526 Y141.474 E.02069
G1 X90.093 Y140.976 E.02069
G1 X89.752 Y140.409 E.02075
G1 X89.494 Y139.802 E.02068
G1 X89.346 Y139.158 E.02072
G1 X89.287 Y138.481 E.02131
G1 X89.287 Y71.634 E2.09594
G1 X89.346 Y70.842 E.0249
M73 Q1 S44
G1 X89.494 Y70.198 E.02072
G1 X89.752 Y69.59 E.02071
M73 P1 R44
G1 X90.093 Y69.024 E.02072
G1 X90.526 Y68.526 E.02069
G1 X91.024 Y68.093 E.02069
G1 X91.591 Y67.752 E.02075
G1 X92.198 Y67.494 E.02068
G1 X92.842 Y67.346 E.02072
G1 X93.521 Y67.287 E.02137
G1 X156.366 Y67.287 E1.97046
G1 X156.72 Y67.3 E.01111
G1 X157.376 Y67.38 E.02072
G1 X158.007 Y67.573 E.02069
G1 X158.606 Y67.852 E.02072
G1 X159.147 Y68.231 E.02071
G1 X159.63 Y68.682 E.02072
G1 X160.028 Y69.209 E.02071
G1 X160.348 Y69.787 E.02071
G1 X160.563 Y70.411 E.02069
G1 X160.689 Y71.06 E.02073
G1 X160.713 Y71.634 E.01801
G1 X160.713 Y138.365 E2.0923
G1 X160.654 Y139.158 E.02493
G1 X160.506 Y139.802 E.02072
G1 X160.248 Y140.41 E.02071
G1 X159.907 Y140.976 E.02072
G1 X159.474 Y141.474 E.02069
G1 X158.976 Y141.907 E.02069
G1 X158.41 Y142.248 E.02072
G1 X157.802 Y142.506 E.02071
G1 X157.158 Y142.654 E.02072
G1 X156.479 Y142.713 E.02137
G1 X93.635 Y142.713 E1.97043
G1 X93.56 Y142.707 E.00236
M204 S1000
G1 X93.56 Y142.707 F10800
G1 X93.5 Y143.08
M204 S800
;TYPE:External perimeter
G1 F1200
G1 X92.783 Y143.027 E.02254
G1 X92.082 Y142.865 E.02256
G1 X91.419 Y142.584 E.02258
G1 X90.802 Y142.213 E.02257
G1 X90.259 Y141.741 E.02256
G1 X89.787 Y141.198 E.02256
G1 X89.416 Y140.581 E.02257
G1 X89.135 Y139.918 E.02258
G1 X88.973 Y139.217 E.02256
G1 X88.91 Y138.491 E.02285
G1 X88.91 Y71.634 E2.09625
G1 X88.973 Y70.783 E.02676
G1 X89.135 Y70.082 E.02256
G1 X89.416 Y69.419 E.02258
G1 X89.787 Y68.802 E.02257
G1 X90.259 Y68.259 E.02256
G1 X90.802 Y67.787 E.02256
G1 X91.419 Y67.416 E.02257
G1 X92.082 Y67.135 E.02258
G1 X92.783 Y66.973 E.02256
G1 X93.511 Y66.91 E.02291
G1 X156.366 Y66.91 E1.97077
G1 X156.74 Y66.923 E.01173
G1 X157.454 Y67.011 E.02256
G1 X158.143 Y67.221 E.02258
G1 X158.795 Y67.525 E.02256
G1 X159.384 Y67.938 E.02256
G1 X159.911 Y68.429 E.02258
G1 X160.344 Y69.004 E.02257
G1 X160.693 Y69.633 E.02255
G1 X160.927 Y70.314 E.02258
G1 X161.064 Y71.02 E.02255
G1 X161.09 Y71.634 E.01927
G1 X161.09 Y138.365 E2.0923
G1 X161.027 Y139.217 E.02679
G1 X160.865 Y139.918 E.02256
G1 X160.584 Y140.581 E.02258
G1 X160.213 Y141.198 E.02257
G1 X159.741 Y141.741 E.02256
G1 X159.198 Y142.213 E.02256
G1 X158.581 Y142.584 E.02257
G1 X157.918 Y142.865 E.02258
G1 X157.217 Y143.027 E.02256
G1 X156.489 Y143.09 E.02291
G1 X93.635 Y143.09 E1.97074
G1 X93.56 Y143.084 E.00236
M73 P1 R43
M204 S1000
;WIPE_START
G1 F8640
G1 X93.5 Y143.08 E-.01388
G1 X92.783 Y143.027 E-.16601
G1 X92.082 Y142.865 E-.16613
G1 X91.419 Y142.584 E-.16627
G1 X90.802 Y142.213 E-.16624
G1 X90.405 Y141.868 E-.12147
;WIPE_END
G1 Z.6 F720
G1 X160.056 Y69.588 F10800
G1 Z.2 F720
G1 E.8 F2100
M204 S800
;TYPE:Solid infill
;WIDTH:0.420408
G1 F1200
G1 X159.089 Y68.621 E.04292
G1 X158.776 Y68.367 E.01265
G1 X158.436 Y68.147 E.01271
G1 X158.075 Y67.963 E.01272
G1 X157.786 Y67.852 E.00972
G1 X160.148 Y70.214 E.10485
G1 X160.287 Y70.695 E.01572
G1 X160.324 Y70.923 E.00725
G1 X157.077 Y67.676 E.14413
G1 X156.905 Y67.649 E.00546
G1 X156.499 Y67.632 E.01275
G1 X160.372 Y71.506 E.17194
G1 X160.374 Y72.041 E.01679
M73 P2 R43
M73 Q2 S44
G1 X155.965 Y67.632 E.19571
G1 X155.431 Y67.632 E.01676
G1 X160.374 Y72.575 E.21942
G1 X160.374 Y73.109 E.01676
G1 X154.897 Y67.632 E.24312
G1 X154.363 Y67.632 E.01676
G1 X160.374 Y73.643 E.26683
G1 X160.374 Y74.176 E.01673
G1 X153.829 Y67.632 E.29051
G1 X153.295 Y67.632 E.01676
G1 X160.374 Y74.71 E.31421
G1 X160.374 Y75.244 E.01676
G1 X152.761 Y67.632 E.33792
G1 X152.227 Y67.632 E.01676
G1 X160.374 Y75.778 E.36162
G1 X160.374 Y76.312 E.01676
G1 X151.693 Y67.632 E.38532
G1 X151.16 Y67.632 E.01673
G1 X160.374 Y76.846 E.40901
G1 X160.374 Y77.379 E.01673
G1 X150.626 Y67.632 E.43269
G1 X150.092 Y67.632 E.01676
G1 X160.374 Y77.913 E.45639
G1 X160.374 Y78.447 E.01676
G1 X149.558 Y67.632 E.4801
G1 X149.024 Y67.631 E.01676
G1 X160.374 Y78.981 E.50382
G1 X160.374 Y79.515 E.01676
G1 X148.49 Y67.631 E.52753
G1 X147.956 Y67.631 E.01676
G1 X160.374 Y80.049 E.55123
G1 X160.374 Y80.583 E.01676
G1 X147.422 Y67.631 E.57494
G1 X146.888 Y67.631 E.01676
G1 X160.374 Y81.116 E.59862
G1 X160.374 Y81.65 E.01676
G1 X146.355 Y67.631 E.6223
G1 X145.821 Y67.631 E.01676
G1 X160.374 Y82.184 E.646
G1 X160.374 Y82.718 E.01676
G1 X145.287 Y67.631 E.66971
G1 X144.753 Y67.631 E.01676
G1 X160.374 Y83.252 E.69341
G1 X160.374 Y83.786 E.01676
G1 X144.219 Y67.631 E.71712
G1 X143.685 Y67.631 E.01676
G1 X160.374 Y84.319 E.7408
G1 X160.374 Y84.853 E.01676
G1 X143.151 Y67.631 E.7645
G1 X142.617 Y67.631 E.01676
M73 Q2 S43
G1 X160.374 Y85.387 E.78821
G1 X160.374 Y85.921 E.01676
G1 X142.083 Y67.631 E.81191
G1 X141.549 Y67.631 E.01676
G1 X160.374 Y86.455 E.83561
G1 X160.374 Y86.989 E.01676
G1 X141.016 Y67.631 E.8593
G1 X140.482 Y67.631 E.01676
G1 X160.374 Y87.523 E.883
G1 X160.374 Y88.056 E.01673
M73 P3 R43
M73 Q3 S43
G1 X139.948 Y67.631 E.90668
G1 X139.414 Y67.631 E.01676
G1 X160.374 Y88.59 E.93039
G1 X160.374 Y89.124 E.01676
G1 X138.88 Y67.631 E.95409
G1 X138.346 Y67.631 E.01676
G1 X160.374 Y89.658 E.97779
G1 X160.374 Y90.192 E.01676
G1 X137.812 Y67.63 E1.00152
G1 X137.278 Y67.63 E.01676
G1 X160.374 Y90.726 E1.02522
G1 X160.374 Y91.26 E.01676
G1 X136.744 Y67.63 E1.04893
G1 X136.21 Y67.63 E.01676
G1 X160.374 Y91.793 E1.07261
G1 X160.374 Y92.327 E.01676
G1 X135.677 Y67.63 E1.09629
G1 X135.143 Y67.63 E.01676
G1 X160.374 Y92.861 E1.12
G1 X160.374 Y93.395 E.01676
G1 X134.609 Y67.63 E1.1437
G1 X134.075 Y67.63 E.01676
G1 X160.374 Y93.929 E1.1674
G1 X160.374 Y94.463 E.01676
G1 X133.541 Y67.63 E1.19111
G1 X133.007 Y67.63 E.01676
G1 X160.374 Y94.996 E1.21479
G1 X160.374 Y95.53 E.01676
G1 X132.473 Y67.63 E1.23849
G1 X131.939 Y67.63 E.01676
G1 X160.374 Y96.064 E1.2622
G1 X160.374 Y96.598 E.01676
M73 P4 R43
M73 Q4 S43
G1 X131.405 Y67.63 E1.2859
G1 X130.872 Y67.63 E.01673
M73 P4 R42
G1 X160.374 Y97.132 E1.30958
G1 X160.374 Y97.666 E.01676
G1 X130.338 Y67.63 E1.33329
G1 X129.804 Y67.63 E.01676
G1 X160.374 Y98.2 E1.35699
G1 X160.374 Y98.733 E.01673
G1 X129.27 Y67.63 E1.38067
G1 X128.736 Y67.63 E.01676
G1 X160.374 Y99.267 E1.40438
G1 X160.374 Y99.801 E.01676
G1 X128.202 Y67.63 E1.42808
G1 X127.668 Y67.63 E.01676
G1 X160.374 Y100.335 E1.45179
G1 X160.374 Y100.869 E.01676
G1 X127.134 Y67.629 E1.47551
G1 X126.6 Y67.629 E.01676
G1 X160.374 Y101.403 E1.49922
G1 X160.374 Y101.937 E.01676
G1 X126.066 Y67.629 E1.52292
G1 X125.533 Y67.629 E.01673
M73 Q4 S42
G1 X160.374 Y102.47 E1.54658
G1 X160.374 Y103.004 E.01676
M73 P5 R42
M73 Q5 S42
G1 X124.999 Y67.629 E1.57029
G1 X124.465 Y67.629 E.01676
G1 X160.374 Y103.538 E1.59399
G1 X160.374 Y104.072 E.01676
G1 X123.931 Y67.629 E1.61769
G1 X123.397 Y67.629 E.01676
G1 X160.374 Y104.606 E1.6414
G1 X160.374 Y105.14 E.01676
G1 X122.863 Y67.629 E1.6651
G1 X122.329 Y67.629 E.01676
G1 X160.374 Y105.673 E1.68878
G1 X160.374 Y106.207 E.01676
G1 X121.795 Y67.629 E1.71249
G1 X121.261 Y67.629 E.01676
G1 X160.374 Y106.741 E1.73619
G1 X160.374 Y107.275 E.01676
G1 X120.727 Y67.629 E1.7599
G1 X120.194 Y67.629 E.01673
G1 X160.374 Y107.809 E1.78358
G1 X160.374 Y108.343 E.01676
M73 P6 R42
M73 Q6 S42
G1 X119.66 Y67.629 E1.80728
G1 X119.126 Y67.629 E.01676
G1 X160.374 Y108.877 E1.83099
G1 X160.374 Y109.41 E.01673
G1 X118.592 Y67.629 E1.85467
G1 X118.058 Y67.629 E.01676
M73 P6 R41
G1 X160.374 Y109.944 E1.87837
G1 X160.374 Y110.478 E.01676
G1 X117.524 Y67.629 E1.90208
G1 X116.99 Y67.629 E.01676
G1 X160.374 Y111.012 E1.92578
G1 X160.374 Y111.546 E.01676
G1 X116.456 Y67.629 E1.94948
G1 X115.922 Y67.628 E.01676
G1 X160.374 Y112.08 E1.97321
G1 X160.374 Y112.613 E.01673
G1 X115.389 Y67.628 E1.99687
G1 X114.855 Y67.628 E.01676
M73 P7 R41
M73 Q7 S42
G1 X160.374 Y113.147 E2.02057
G1 X160.374 Y113.681 E.01676
M73 Q7 S41
G1 X114.321 Y67.628 E2.04428
G1 X113.787 Y67.628 E.01676
G1 X160.374 Y114.215 E2.06798
G1 X160.374 Y114.749 E.01676
G1 X113.253 Y67.628 E2.09169
G1 X112.719 Y67.628 E.01676
G1 X160.374 Y115.283 E2.11539
G1 X160.374 Y115.817 E.01676
G1 X112.185 Y67.628 E2.13909
G1 X111.651 Y67.628 E.01676
G1 X160.374 Y116.35 E2.16278
G1 X160.374 Y116.884 E.01676
G1 X111.117 Y67.628 E2.18648
G1 X110.583 Y67.628 E.01676
M73 P8 R41
M73 Q8 S41
G1 X160.374 Y117.418 E2.21019
G1 X160.374 Y117.952 E.01676
G1 X110.05 Y67.628 E2.23387
G1 X109.516 Y67.628 E.01676
G1 X160.374 Y118.486 E2.25757
G1 X160.374 Y119.02 E.01676
G1 X108.982 Y67.628 E2.28128
G1 X108.448 Y67.628 E.01676
M73 P8 R40
G1 X160.374 Y119.554 E2.30498
G1 X160.374 Y120.087 E.01673
G1 X107.914 Y67.628 E2.32866
G1 X107.38 Y67.628 E.01676
G1 X160.374 Y120.621 E2.35237
G1 X160.374 Y121.155 E.01676
M73 P9 R40
M73 Q9 S41
G1 X106.846 Y67.628 E2.37607
G1 X106.312 Y67.628 E.01676
G1 X160.374 Y121.689 E2.39977
G1 X160.374 Y122.223 E.01676
G1 X105.778 Y67.628 E2.42348
G1 X105.244 Y67.628 E.01676
M73 Q9 S40
G1 X160.374 Y122.757 E2.44718
G1 X160.374 Y123.29 E.01673
G1 X104.711 Y67.627 E2.47086
G1 X104.177 Y67.627 E.01676
G1 X160.374 Y123.824 E2.49457
G1 X160.374 Y124.358 E.01676
G1 X103.643 Y67.627 E2.51827
G1 X103.109 Y67.627 E.01676
M73 P10 R40
M73 Q10 S40
G1 X160.374 Y124.892 E2.54198
G1 X160.374 Y125.426 E.01676
G1 X102.575 Y67.627 E2.56568
G1 X102.041 Y67.627 E.01676
G1 X160.374 Y125.96 E2.58938
G1 X160.374 Y126.494 E.01676
G1 X101.507 Y67.627 E2.61309
G1 X100.973 Y67.627 E.01676
G1 X160.374 Y127.027 E2.63677
G1 X160.374 Y127.561 E.01676
M73 P10 R39
G1 X100.439 Y67.627 E2.66047
G1 X99.905 Y67.627 E.01676
M73 P11 R39
G1 X160.374 Y128.095 E2.68418
G1 X160.374 Y128.629 E.01676
M73 Q11 S40
G1 X99.372 Y67.627 E2.70786
G1 X98.838 Y67.627 E.01676
G1 X160.374 Y129.163 E2.73156
G1 X160.374 Y129.697 E.01676
G1 X98.304 Y67.627 E2.75527
G1 X97.77 Y67.627 E.01676
M73 Q11 S39
G1 X160.374 Y130.23 E2.77895
G1 X160.374 Y130.764 E.01676
G1 X97.236 Y67.627 E2.80265
G1 X96.702 Y67.627 E.01676
M73 P12 R39
G1 X160.374 Y131.298 E2.82636
G1 X160.374 Y131.832 E.01676
M73 Q12 S39
G1 X96.168 Y67.627 E2.85006
G1 X95.634 Y67.627 E.01676
G1 X160.374 Y132.366 E2.87377
G1 X160.374 Y132.9 E.01676
G1 X95.1 Y67.627 E2.89747
G1 X94.567 Y67.627 E.01673
G1 X160.374 Y133.434 E2.92115
G1 X160.374 Y133.967 E.01673
G1 X94.033 Y67.626 E2.94486
G1 X93.5 Y67.628 E.01673
M73 P13 R38
G1 X160.374 Y134.501 E2.96849
G1 X160.374 Y135.035 E.01676
M73 Q13 S39
G1 X93.002 Y67.664 E2.9906
G1 X92.555 Y67.75 E.01429
G1 X160.374 Y135.569 E3.01046
G1 X160.374 Y136.103 E.01676
G1 X92.148 Y67.877 E3.02853
G1 X91.776 Y68.039 E.01274
G1 X160.374 Y136.637 E3.04504
G1 X160.374 Y137.171 E.01676
M73 Q13 S38
G1 X91.434 Y68.231 E3.06023
G1 X91.121 Y68.451 E.01201
M73 P14 R38
M73 Q14 S38
G1 X160.374 Y137.704 E3.07412
G1 X160.374 Y138.238 E.01676
G1 X90.834 Y68.698 E3.08686
G1 X90.623 Y68.909 E.00937
G1 X90.572 Y68.971 E.00252
G1 X160.359 Y138.757 E3.0978
G1 X160.299 Y139.231 E.015
G1 X90.338 Y69.27 E3.10555
G1 X90.13 Y69.596 E.01214
G1 X160.193 Y139.659 E3.11008
G1 X160.048 Y140.048 E.01303
M73 P15 R38
G1 X89.952 Y69.952 E3.11154
G1 X89.807 Y70.341 E.01303
M73 Q15 S38
G1 X159.87 Y140.404 E3.11008
G1 X159.662 Y140.73 E.01214
M73 P15 R37
G1 X89.701 Y70.769 E3.10555
G1 X89.641 Y71.243 E.015
G1 X159.427 Y141.029 E3.09778
G1 X159.166 Y141.302 E.01186
G1 X89.626 Y71.762 E3.08686
G1 X89.626 Y72.296 E.01676
G1 X158.879 Y141.549 E3.07412
G1 X158.566 Y141.769 E.01201
M73 P16 R37
M73 Q16 S37
G1 X89.626 Y72.83 E3.0602
G1 X89.626 Y73.363 E.01673
G1 X158.224 Y141.961 E3.04504
G1 X157.852 Y142.123 E.01274
G1 X89.626 Y73.897 E3.02853
G1 X89.626 Y74.431 E.01676
G1 X157.445 Y142.25 E3.01046
G1 X156.998 Y142.336 E.01429
G1 X89.626 Y74.965 E2.9906
G1 X89.626 Y75.499 E.01676
M73 P17 R37
G1 X156.5 Y142.372 E2.96849
G1 X155.967 Y142.374 E.01673
M73 Q17 S37
G1 X89.626 Y76.033 E2.94486
G1 X89.626 Y76.567 E.01676
G1 X155.433 Y142.374 E2.92115
G1 X154.9 Y142.374 E.01673
M73 P17 R36
G1 X89.626 Y77.1 E2.89749
G1 X89.626 Y77.634 E.01676
G1 X154.366 Y142.374 E2.87379
G1 X153.832 Y142.374 E.01676
G1 X89.626 Y78.168 E2.85008
G1 X89.626 Y78.702 E.01676
M73 P18 R36
G1 X153.298 Y142.374 E2.82638
G1 X152.764 Y142.374 E.01676
M73 Q18 S37
G1 X89.626 Y79.236 E2.80268
G1 X89.626 Y79.77 E.01676
M73 Q18 S36
G1 X152.23 Y142.374 E2.77897
G1 X151.697 Y142.374 E.01673
G1 X89.626 Y80.303 E2.75531
G1 X89.626 Y80.837 E.01676
G1 X151.163 Y142.374 E2.73161
G1 X150.629 Y142.374 E.01676
G1 X89.626 Y81.371 E2.7079
G1 X89.626 Y81.905 E.01676
M73 P19 R36
G1 X150.095 Y142.374 E2.6842
G1 X149.561 Y142.374 E.01676
M73 Q19 S36
G1 X89.626 Y82.439 E2.6605
G1 X89.626 Y82.973 E.01676
G1 X149.027 Y142.374 E2.63679
G1 X148.493 Y142.374 E.01676
G1 X89.626 Y83.507 E2.61309
G1 X89.626 Y84.04 E.01673
M73 P19 R35
G1 X147.96 Y142.374 E2.58943
G1 X147.426 Y142.374 E.01676
G1 X89.626 Y84.574 E2.56572
G1 X89.626 Y85.108 E.01676
M73 P20 R35
G1 X146.892 Y142.374 E2.54202
G1 X146.358 Y142.374 E.01676
